Numix/scalable/actions/document-properties-symbolic.svg

<?xml version="1.0" encoding="UTF-8" standalone="no"?>
<svg
   xmlns:dc="http://purl.org/dc/elements/1.1/"
   xmlns:cc="http://creativecommons.org/ns#"
   xmlns:rdf="http://www.w3.org/1999/02/22-rdf-syntax-ns#"
   xmlns:svg="http://www.w3.org/2000/svg"
   xmlns="http://www.w3.org/2000/svg"
   xmlns:sodipodi="http://sodipodi.sourceforge.net/DTD/sodipodi-0.dtd"
   xmlns:inkscape="http://www.inkscape.org/namespaces/inkscape"
   viewBox="0 0 16 16.000001"
   id="svg3065"
   version="1.1"
   inkscape:version="0.91 r"
   sodipodi:docname="document-properties-symbolic.svg"
   width="16"
   height="16">
  <metadata
     id="metadata3077">
    <rdf:RDF>
      <cc:Work
         rdf:about="">
        <dc:format>image/svg+xml</dc:format>
        <dc:type
           rdf:resource="http://purl.org/dc/dcmitype/StillImage" />
        <dc:title />
      </cc:Work>
    </rdf:RDF>
  </metadata>
  <defs
     id="defs3075" />
  <sodipodi:namedview
     pagecolor="#ffffff"
     bordercolor="#666666"
     borderopacity="1"
     objecttolerance="10"
     gridtolerance="10"
     guidetolerance="10"
     inkscape:pageopacity="0"
     inkscape:pageshadow="2"
     inkscape:window-width="1920"
     inkscape:window-height="1056"
     id="namedview3073"
     showgrid="true"
     inkscape:zoom="16"
     inkscape:cx="3.868193"
     inkscape:cy="9.3849394"
     inkscape:window-x="0"
     inkscape:window-y="24"
     inkscape:window-maximized="1"
     inkscape:current-layer="svg3065">
    <inkscape:grid
       type="xygrid"
       id="grid4135" />
  </sodipodi:namedview>
  <path
     style="opacity:1;fill:#bebebe;fill-opacity:1;fill-rule:nonzero;stroke:none;stroke-width:2.75;stroke-linecap:butt;stroke-linejoin:miter;stroke-miterlimit:4;stroke-dasharray:none;stroke-dashoffset:0;stroke-opacity:1"
     d="m 9.8450947,7.5371094 a 2.4999992,3.2499993 60 0 0 -0.7070312,0.058594 l 0.7558593,1.3085938 c 0.2770002,0.4797778 0.1125902,1.088235 -0.3671874,1.3652341 l -0.6484376,0.375 C 8.39852,10.921531 7.7881102,10.759075 7.5111104,10.279297 L 6.755251,8.9707031 A 2.4999992,3.2499993 60 0 0 6.2630635,11.865234 2.4999992,3.2499993 60 0 0 9.0169697,12.886719 L 10.813845,16 13.99158,16 11.399783,11.511719 A 2.4999992,3.2499993 60 0 0 11.89197,8.6152344 2.4999992,3.2499993 60 0 0 9.8450947,7.5371094 Z"
     id="path4139"
     inkscape:connector-curvature="0" />
  <path
     style="color:#000000;font-style:normal;font-variant:normal;font-weight:normal;font-stretch:normal;font-size:medium;line-height:normal;font-family:sans-serif;text-indent:0;text-align:start;text-decoration:none;text-decoration-line:none;text-decoration-style:solid;text-decoration-color:#000000;letter-spacing:normal;word-spacing:normal;text-transform:none;direction:ltr;block-progression:tb;writing-mode:lr-tb;baseline-shift:baseline;text-anchor:start;white-space:normal;clip-rule:nonzero;display:inline;overflow:visible;visibility:visible;opacity:1;isolation:auto;mix-blend-mode:normal;color-interpolation:sRGB;color-interpolation-filters:linearRGB;solid-color:#000000;solid-opacity:1;fill:#bebebe;fill-opacity:1;fill-rule:nonzero;stroke:none;stroke-width:1.00000012;stroke-linecap:butt;stroke-linejoin:miter;stroke-miterlimit:4;stroke-dasharray:none;stroke-dashoffset:0;stroke-opacity:1;color-rendering:auto;image-rendering:auto;shape-rendering:auto;text-rendering:auto;enable-background:accumulate"
     d="M 2 1 L 2 1.5 L 2 15 L 8.6484375 15 L 8.1582031 14.150391 C 7.8137206 14.130118 7.4745735 14.080079 7.1484375 14 L 3 14 L 3 2 L 12 2 L 12 6.8046875 C 12.395975 7.0626335 12.737461 7.3972469 13 7.8066406 L 13 1 L 2 1 z M 13 11.214844 C 12.971656 11.276017 12.954156 11.339932 12.923828 11.400391 L 13 11.533203 L 13 11.214844 z M 11.248047 14 L 11.607422 14.625 L 11.609375 14.625 L 11.248047 14 z "
     id="rect4147" />
</svg>

<svg xmlns="http://www.w3.org/2000/svg" viewBox="0 0 16 16.000001">
 <path d="m 9.845 7.537 a 2.5 3.25 60 0 0 -0.707 0.059 l 0.756 1.309 c 0.277 0.48 0.113 1.088 -0.367 1.365 l -0.648 0.375 C 8.399 10.922 7.788 10.759 7.511 10.279 L 6.755 8.971 A 2.5 3.25 60 0 0 6.263 11.865 2.5 3.25 60 0 0 9.02 12.887 L 10.814 16 13.992 16 11.4 11.512 A 2.5 3.25 60 0 0 11.892 8.615 2.5 3.25 60 0 0 9.845 7.537" style="fill:#bebebe;opacity:1;fill-opacity:1;stroke:none;fill-rule:nonzero"/>
 <path d="m 2 1 l 0 0.5 l 0 13.5 l 6.648 0 l -0.49 -0.85 c -0.344 -0.02 -0.684 -0.07 -1.01 -0.15 l -4.148 0 l 0 -12 l 9 0 l 0 4.805 c 0.396 0.258 0.737 0.593 1 1 l 0 -6.807 l -11 0 z m 11 10.215 c -0.028 0.061 -0.046 0.125 -0.076 0.186 l 0.076 0.133 l 0 -0.318 z m -1.752 2.785 l 0.359 0.625 l 0.002 0 l -0.361 -0.625 z" mix-blend-mode="normal" isolation="auto" white-space="normal" solid-opacity="1" solid-color="#000000" style="visibility:visible;shape-rendering:auto;color-interpolation-filters:linearRGB;fill:#bebebe;opacity:1;image-rendering:auto;fill-opacity:1;stroke:none;display:inline;color:#000;fill-rule:nonzero;color-rendering:auto;color-interpolation:sRGB"/>
</svg>
